X:0416
T:Dribbles of Brandy.
M:6/8
L:1/8
Q:3/8=120
I: :: ::
Z:Jack Campin * www.campin.me.uk * 2009
K:E Minor
EGE G2A|B2e dBG |A2B c2A|B2G  FE^D|
EGE G2A|B2e dBG |A2B c2A|BGE  E3 ::
e2f g2e|fag fe^d|e2f g2e|fe^d e3  |
e2f g2e|fag fe^d|e2B c2A|BGE  E3 :|

